X: 367
T: James O'Brien
R: waltz, air
%S: s:3 b:32(10+11+11)
B: O'Neill's 1850 #367
O: F.O'Neill.
Z: Chris Falt, cfalt@trytel.com
Q: "Moderate."
M: 3/4
L: 1/4
K: G
d | (edB) | (GAB) | EGE | D2(E/F/) | .G(FG) | (TedB) | A3- | A2 || d | (edB) | (GAB) |
| (EGc) | (e2f/e/) | (dBG) | (AEF) | G3- | G2 |]| d | ede | (Tgfe) | fed | (B2d) | (Tede) |
| (Tgfe) | g3- | g2 || (g/f/) | (TedB) | (GAB) | (EGc) | e2f/e/ | (dBG) | AEF | G3- | G2 |]
